X: 34028
T: Reel Dans 'La Cuisinière'
R: reel
M: 4/4
K: Gmajor
|:G2dG eGdG|G2dG FGAc|BGdG eGdB|cBAc BGGG|
G2dG eGdG|G2dG FGAB|cdef gedB|1 cBAc BGGG:|2 cBAc B2z2||
|:gbag fddd|Bdad bdaf|gbaf gedB|cBAc BGGG|
gbag fddd|Bdad bdaf|gbaf gedB|cBAc BGGG:|

